www/images/overwatch_logo_04_flat.svg

<?xml version="1.0" encoding="UTF-8" standalone="no"?>
<!-- Created with Inkscape (http://www.inkscape.org/) -->

<svg
   xmlns:dc="http://purl.org/dc/elements/1.1/"
   xmlns:cc="http://creativecommons.org/ns#"
   xmlns:rdf="http://www.w3.org/1999/02/22-rdf-syntax-ns#"
   xmlns:svg="http://www.w3.org/2000/svg"
   xmlns="http://www.w3.org/2000/svg"
   xmlns:xlink="http://www.w3.org/1999/xlink"
   version="1.1"
   width="600"
   height="600"
   id="svg3960">
  <defs
     id="defs3962">
    <linearGradient
       id="linearGradient4959">
      <stop
         id="stop4961"
         style="stop-color:#000000;stop-opacity:1"
         offset="0" />
      <stop
         id="stop4963"
         style="stop-color:#ffffff;stop-opacity:1"
         offset="1" />
    </linearGradient>
    <linearGradient
       x1="300"
       y1="96.734383"
       x2="300"
       y2="505.0625"
       id="linearGradient4965"
       xlink:href="#linearGradient4959"
       gradientUnits="userSpaceOnUse" />
    <linearGradient
       x1="300.00049"
       y1="583.62787"
       x2="300.00049"
       y2="16.369165"
       id="linearGradient4973"
       xlink:href="#linearGradient4959"
       gradientUnits="userSpaceOnUse" />
  </defs>
  <metadata
     id="metadata3965">
    <rdf:RDF>
      <cc:Work
         rdf:about="">
        <dc:format>image/svg+xml</dc:format>
        <dc:type
           rdf:resource="http://purl.org/dc/dcmitype/StillImage" />
        <dc:title></dc:title>
      </cc:Work>
    </rdf:RDF>
  </metadata>
  <path
     d="M 296.70405,0.00424149 C 229.93779,0.43221149 163.9322,24.232681 112.07437,66.087451 l 56.66164,65.785689 C 216.5573,94.134131 280.99173,78.755181 340.75427,90.636091 c 32.84344,6.31836 64.09548,20.739679 90.46333,41.237049 L 487.87924,66.087451 C 434.24075,22.804341 365.76667,-1.0306785 296.70405,0.00424149 z"
     id="path3961"
     style="color:#000000;fill:#fa9c1e;fill-opacity:1;fill-rule:nonzero;stroke:none;stroke-width:9;marker:none;visibility:visible;display:inline;overflow:visible;enable-background:accumulate" />
  <path
     d="M 93.627932,82.252881 C 33.924062,138.34244 -1.0821983,219.87731 0.02552166,302.12246 0.06092166,387.49363 39.004212,471.35277 103.6776,526.81868 c 59.78108,52.2845 141.08577,78.91882 220.46136,72.18109 86.01035,-6.40518 167.64782,-52.34458 218.11716,-122.14284 49.12454,-66.32853 68.37083,-153.7971 52.06401,-234.90882 C 582.33252,179.85678 549.77957,122.31301 503.48268,79.542111 L 446.82104,145.3278 c 45.65578,43.03442 70.58508,106.55713 65.88486,169.22459 -2.05604,31.04856 -11.0736,61.69033 -26.31427,88.95944 l -115.47207,-111.53814 -58.26,-125.58266 -0.0876,190.17825 116.69522,112.92659 c -52.0019,40.40208 -123.35295,53.80249 -186.57773,35.89403 -25.74389,-7.18124 -50.12185,-19.23034 -71.30879,-35.39816 L 288.86927,356.56928 c -0.20481,-61.83078 0.7175,-128.57681 -6.9e-4,-190.3826 L 230.52166,291.97369 114.05785,404.43746 c -35.530468,-62.02488 -36.380378,-142.2105 -2.18183,-204.92738 10.69103,-20.0919 24.84106,-38.42801 41.25655,-54.18228 L 96.470932,79.542111 c -0.94767,0.90359 -1.89534,1.80717 -2.843,2.71077 z"
     id="path4052"
     style="color:#000000;fill:#4a4c4e;fill-opacity:1;fill-rule:nonzero;stroke:none;stroke-width:9;marker:none;visibility:visible;display:inline;overflow:visible;enable-background:accumulate" />
</svg>

<svg xmlns="http://www.w3.org/2000/svg" width="600" height="600"><path d="M296.704.004c-66.766.428-132.772 24.229-184.63 66.083l56.662 65.786c47.821-37.739 112.256-53.118 172.018-41.237 32.844 6.318 64.096 20.74 90.464 41.237l56.661-65.786C434.241 22.804 365.767-1.03 296.704.004z" style="marker:none" color="#000" fill="#fa9c1e" overflow="visible"/><path d="M93.628 82.253C33.924 138.343-1.082 219.877.026 302.123c.035 85.37 38.978 169.23 103.652 224.696 59.78 52.284 141.085 78.919 220.461 72.18 86.01-6.404 167.648-52.344 218.117-122.142 49.125-66.329 68.371-153.797 52.064-234.909-11.987-62.091-44.54-119.635-90.837-162.406l-56.662 65.786c45.656 43.034 70.585 106.557 65.885 169.224-2.056 31.049-11.074 61.69-26.314 88.96L370.92 291.974 312.66 166.39l-.088 190.178 116.695 112.927c-52.002 40.402-123.353 53.802-186.578 35.894-25.743-7.181-50.121-19.23-71.308-35.398l117.488-113.423c-.205-61.83.718-128.577 0-190.382l-58.347 125.787-116.464 112.463c-35.53-62.024-36.38-142.21-2.182-204.927 10.691-20.092 24.841-38.428 41.257-54.182L96.47 79.542l-2.843 2.71z" style="marker:none" color="#000" fill="#4a4c4e" overflow="visible"/></svg>
